build/documents/CatalogSolid.svg

<svg xmlns="http://www.w3.org/2000/svg" fill="none" viewBox="0 0 24 24" focusable="false"><path d="M0 0H24V24H0z"/><path fill="#74767B" fill-rule="evenodd" d="M20.39 7.52489C21.2283 7.52489 21.2283 8.82489 20.39 8.82489L19 8.82489L19 15.1999L20.39 15.1999C20.749 15.1999 21.04 15.491 21.04 15.8499C21.04 16.2089 20.749 16.4999 20.39 16.4999L19 16.4999L19 17.9999C19 19.6499 17.66 20.9999 16 20.9999L7 20.9999C5.34 20.9999 4 19.6599 4 17.9999L4 6.03491C4 4.37491 5.34 3.03491 7 3.03491L16 3.03491C17.66 3.03491 19 4.37491 19 6.03491L19 7.52489L20.39 7.52489ZM8.5 9.22675C9.05228 9.22675 9.5 8.77903 9.5 8.22675C9.5 7.67446 9.05228 7.22675 8.5 7.22675C7.94772 7.22675 7.5 7.67446 7.5 8.22675C7.5 8.77903 7.94772 9.22675 8.5 9.22675ZM14.72 8.87682C15.079 8.87682 15.37 8.58581 15.37 8.22682C15.37 7.86784 15.079 7.57682 14.72 7.57682L11.5 7.57682C11.141 7.57682 10.85 7.86784 10.85 8.22682C10.85 8.58581 11.141 8.87682 11.5 8.87682L14.72 8.87682ZM15.3809 11.9999C15.3809 12.3589 15.0898 12.6499 14.7309 12.6499L11.5109 12.6499C11.1519 12.6499 10.8609 12.3589 10.8609 11.9999C10.8609 11.641 11.1519 11.3499 11.5109 11.3499L14.7309 11.3499C15.0898 11.3499 15.3809 11.641 15.3809 11.9999ZM14.72 16.4793C15.079 16.4793 15.37 16.1883 15.37 15.8293C15.37 15.4703 15.079 15.1793 14.72 15.1793L11.5 15.1793C11.141 15.1793 10.85 15.4703 10.85 15.8293C10.85 16.1883 11.141 16.4793 11.5 16.4793L14.72 16.4793ZM9.52585 11.9999C9.52585 12.5522 9.07814 12.9999 8.52585 12.9999C7.97357 12.9999 7.52585 12.5522 7.52585 11.9999C7.52585 11.4477 7.97357 10.9999 8.52585 10.9999C9.07814 10.9999 9.52585 11.4477 9.52585 11.9999ZM9.52585 15.8025C9.52585 16.3547 9.07814 16.8025 8.52585 16.8025C7.97357 16.8025 7.52585 16.3547 7.52585 15.8025C7.52585 15.2502 7.97357 14.8025 8.52585 14.8025C9.07814 14.8025 9.52585 15.2502 9.52585 15.8025Z"/></svg>

<svg xmlns="http://www.w3.org/2000/svg" fill="none" viewBox="0 0 24 24" focusable="false"><path fill="#74767B" fill-rule="evenodd" d="M20.38 7.52c.84 0 .84 1.3 0 1.3H19v6.37h1.38c.36 0 .66.3.66.65 0 .36-.3.65-.66.65H19v1.5c0 1.65-1.35 3-3 3H7c-1.66 0-3-1.34-3-3V6.03c0-1.66 1.34-3 3-3h9c1.65 0 3 1.34 3 3v1.49zM8.5 9.22c.55 0 1-.45 1-1s-.45-1-1-1c-.56 0-1 .45-1 1s.44 1 1 1m6.22-.35c.35 0 .65-.29.65-.65s-.3-.65-.65-.65H11.5c-.36 0-.65.29-.65.65s.29.65.65.65zm.66 3.12c0 .36-.3.65-.65.65h-3.22c-.36 0-.65-.29-.65-.65 0-.35.29-.65.65-.65h3.22c.35 0 .65.3.65.65m-.66 4.48c.35 0 .65-.29.65-.65 0-.35-.3-.65-.65-.65H11.5c-.36 0-.65.3-.65.65 0 .36.29.65.65.65zm-5.2-4.48c0 .56-.45 1-1 1s-1-.44-1-1c0-.55.45-1 1-1s1 .45 1 1m0 3.81c0 .55-.45 1-1 1s-1-.45-1-1 .45-1 1-1 1 .45 1 1"/></svg>
